public/imgs/Header/logo.svg

<svg width="229" height="43" viewBox="0 0 229 43" fill="none" xmlns="http://www.w3.org/2000/svg">
<g clip-path="url(#clip0_443_8728)">
<path d="M34.0964 10.0312C30.4424 10.0312 27.1469 11.6089 24.8407 14.1244L28.9685 20.4133C29.8571 18.448 31.821 17.0791 34.0964 17.0791C37.2053 17.0791 39.7343 19.6326 39.7343 22.7716C39.7343 25.9106 37.2053 28.4641 34.0964 28.4641C31.9942 28.4641 30.2558 27.2375 29.19 25.5704C23.7601 17.0791 24.5789 18.2732 22.8217 15.5028C22.3949 14.8292 21.8821 14.1312 21.7532 13.9943C19.4537 11.5547 16.2092 10.0312 12.6183 10.0312C5.6608 10.0312 0 15.7468 0 22.7716C0 29.7964 5.6608 35.512 12.6183 35.512C16.2911 35.512 19.6014 33.9194 21.9089 31.3822L17.8093 24.993C16.9502 27.0315 14.9474 28.4641 12.6183 28.4641C9.50939 28.4641 6.98036 25.9106 6.98036 22.7716C6.98036 19.6326 9.50939 17.0791 12.6183 17.0791C14.6923 17.0791 16.4508 18.2515 17.4871 19.9064C21.7465 26.7022 22.1425 27.2294 23.9856 30.119C24.4608 30.8631 25.2286 31.8322 25.4796 32.0694C27.7362 34.2027 30.7673 35.512 34.0964 35.512C41.0539 35.512 46.7147 29.7964 46.7147 22.7716C46.7147 15.7468 41.0539 10.0312 34.0964 10.0312Z" fill="black"/>
</g>
<path d="M59.1271 35.9297H63.6651V11.0708H59.1271V35.9297ZM68.0795 35.9297H72.4507V25.2854C72.4507 24.1064 72.7843 23.161 73.4517 22.4492C74.1413 21.7373 75.0311 21.3814 76.1211 21.3814C77.2111 21.3814 78.0898 21.7373 78.7572 22.4492C79.4468 23.1388 79.7915 24.0842 79.7915 25.2854V35.9297H84.1627V24.251C84.1627 22.8941 83.8735 21.704 83.2951 20.6807C82.7168 19.6352 81.9048 18.8232 80.8593 18.2448C79.836 17.6665 78.657 17.3773 77.3223 17.3773C76.1878 17.3773 75.1646 17.5997 74.2525 18.0446C73.3627 18.4895 72.6731 19.1458 72.1837 20.0133V17.7777H68.0795V35.9297ZM89.9611 35.9297H94.3323V21.6817H100.672V35.9297H105.043V17.7777H94.3323V17.1771C94.3323 16.265 94.5992 15.5977 95.1331 15.175C95.6892 14.7301 96.4456 14.5077 97.4021 14.5077C97.758 14.5077 98.1362 14.541 98.5366 14.6078V10.8372C98.025 10.726 97.4577 10.6704 96.8348 10.6704C94.7438 10.6704 93.0754 11.2376 91.8297 12.3721C90.584 13.5066 89.9611 15.1083 89.9611 17.1771V17.7777H86.7578V21.6817H89.9611V35.9297ZM108.681 35.9297H113.052V25.2854C113.052 24.1064 113.386 23.161 114.053 22.4492C114.743 21.7373 115.633 21.3814 116.723 21.3814C117.813 21.3814 118.691 21.7373 119.359 22.4492C120.048 23.1388 120.393 24.0842 120.393 25.2854V35.9297H124.764V24.251C124.764 22.8941 124.475 21.704 123.897 20.6807C123.318 19.6352 122.506 18.8232 121.461 18.2448C120.438 17.6665 119.259 17.3773 117.924 17.3773C116.789 17.3773 115.766 17.5997 114.854 18.0446C113.964 18.4895 113.275 19.1458 112.785 20.0133V17.7777H108.681V35.9297ZM128.461 15.7423H132.832V11.0708H128.461V15.7423ZM128.461 35.9297H132.832V17.7777H128.461V35.9297ZM135.233 35.9297H140.371L144.175 30.2906L147.946 35.9297H153.051L146.744 26.8203L153.084 17.7777H147.979L144.175 23.4168L140.338 17.7777H135.199L141.572 26.8203L135.233 35.9297Z" fill="black"/>
<path d="M171.788 19.6035H172.977V15.6843H177.503V19.6035H178.705V10.5639H177.503V14.5923H172.977V10.5639H171.788V19.6035ZM185.03 19.7491C185.678 19.7491 186.276 19.6359 186.826 19.4094C187.384 19.1748 187.874 18.8472 188.294 18.4265C188.715 18.0059 189.043 17.5125 189.277 16.9462C189.512 16.38 189.629 15.7571 189.629 15.0777C189.629 14.4063 189.512 13.7874 189.277 13.2212C189.043 12.6469 188.715 12.1534 188.294 11.7409C187.874 11.3203 187.384 10.9967 186.826 10.7702C186.276 10.5356 185.678 10.4183 185.03 10.4183C184.391 10.4183 183.793 10.5356 183.235 10.7702C182.677 10.9967 182.187 11.3203 181.766 11.7409C181.354 12.1534 181.03 12.6428 180.796 13.2091C180.561 13.7753 180.444 14.3982 180.444 15.0777C180.444 15.7571 180.561 16.38 180.796 16.9462C181.03 17.5125 181.358 18.0059 181.779 18.4265C182.199 18.8472 182.685 19.1748 183.235 19.4094C183.793 19.6359 184.391 19.7491 185.03 19.7491ZM185.03 18.645C184.375 18.645 183.789 18.4872 183.271 18.1717C182.761 17.8482 182.361 17.4195 182.07 16.8856C181.779 16.3436 181.633 15.741 181.633 15.0777C181.633 14.4143 181.779 13.8157 182.07 13.2819C182.361 12.748 182.761 12.3233 183.271 12.0078C183.781 11.6843 184.367 11.5225 185.03 11.5225C185.694 11.5225 186.28 11.6843 186.79 12.0078C187.299 12.3233 187.7 12.748 187.991 13.2819C188.282 13.8157 188.428 14.4143 188.428 15.0777C188.428 15.741 188.282 16.3436 187.991 16.8856C187.7 17.4195 187.299 17.8482 186.79 18.1717C186.28 18.4872 185.694 18.645 185.03 18.645ZM191.363 19.6035H196.52V18.5115H192.552V10.5639H191.363V19.6035ZM197.857 19.6035H200.817C201.731 19.6035 202.528 19.4134 203.208 19.0332C203.887 18.653 204.413 18.1232 204.785 17.4437C205.157 16.7642 205.343 15.9755 205.343 15.0777C205.343 14.1717 205.157 13.383 204.785 12.7116C204.413 12.0321 203.887 11.5063 203.208 11.1342C202.528 10.754 201.731 10.5639 200.817 10.5639H197.857V19.6035ZM199.046 18.5115V11.656H200.83C201.493 11.656 202.067 11.7975 202.553 12.0806C203.046 12.3557 203.426 12.748 203.693 13.2576C203.968 13.7672 204.106 14.3739 204.106 15.0777C204.106 15.7733 203.972 16.38 203.705 16.8977C203.438 17.4154 203.058 17.8158 202.565 18.0989C202.079 18.374 201.501 18.5115 200.83 18.5115H199.046ZM206.85 19.6035H208.04V10.5639H206.85V19.6035ZM210.05 19.6035H211.239V12.8329L215.995 19.6035H216.99V10.5639H215.789V17.2374L211.045 10.5639H210.05V19.6035ZM223.182 19.7491C223.74 19.7491 224.27 19.6521 224.771 19.4579C225.273 19.2638 225.714 18.9847 226.094 18.6207C226.474 18.2567 226.773 17.8239 226.992 17.3224C227.21 16.8128 227.319 16.2425 227.319 15.6115V14.8107H223.17V15.8421H226.118V15.8906C226.118 16.4326 225.985 16.9098 225.718 17.3224C225.459 17.7349 225.107 18.0585 224.662 18.2931C224.225 18.5277 223.732 18.645 223.182 18.645C222.551 18.645 221.989 18.4953 221.495 18.196C221.01 17.8967 220.626 17.4801 220.343 16.9462C220.067 16.4124 219.93 15.7935 219.93 15.0898C219.93 14.3779 220.067 13.7551 220.343 13.2212C220.618 12.6873 220.998 12.2707 221.483 11.9714C221.977 11.6721 222.539 11.5225 223.17 11.5225C223.801 11.5225 224.343 11.6762 224.796 11.9836C225.249 12.2909 225.576 12.7075 225.778 13.2333L226.846 12.7116C226.701 12.3152 226.454 11.9431 226.106 11.5953C225.766 11.2475 225.346 10.9643 224.844 10.7459C224.351 10.5275 223.793 10.4183 223.17 10.4183C222.531 10.4183 221.94 10.5356 221.398 10.7702C220.864 10.9967 220.395 11.3203 219.991 11.7409C219.594 12.1615 219.287 12.655 219.068 13.2212C218.85 13.7874 218.741 14.4103 218.741 15.0898C218.741 15.7612 218.85 16.384 219.068 16.9584C219.295 17.5246 219.606 18.018 220.003 18.4387C220.399 18.8512 220.868 19.1748 221.41 19.4094C221.952 19.6359 222.543 19.7491 223.182 19.7491ZM175.962 34.7491C176.52 34.7491 177.05 34.6521 177.552 34.4579C178.053 34.2638 178.494 33.9847 178.874 33.6207C179.255 33.2567 179.554 32.8239 179.772 32.3224C179.991 31.8128 180.1 31.2425 180.1 30.6115V29.8107H175.95V30.8421H178.899V30.8906C178.899 31.4326 178.765 31.9098 178.498 32.3224C178.239 32.7349 177.888 33.0585 177.443 33.2931C177.006 33.5277 176.512 33.645 175.962 33.645C175.331 33.645 174.769 33.4953 174.276 33.196C173.79 32.8967 173.406 32.4801 173.123 31.9462C172.848 31.4124 172.711 30.7935 172.711 30.0898C172.711 29.3779 172.848 28.7551 173.123 28.2212C173.398 27.6873 173.778 27.2707 174.264 26.9714C174.757 26.6721 175.319 26.5225 175.95 26.5225C176.581 26.5225 177.123 26.6762 177.576 26.9836C178.029 27.2909 178.357 27.7075 178.559 28.2333L179.627 27.7116C179.481 27.3152 179.234 26.9431 178.887 26.5953C178.547 26.2475 178.126 25.9643 177.625 25.7459C177.131 25.5275 176.573 25.4183 175.95 25.4183C175.311 25.4183 174.721 25.5356 174.179 25.7702C173.645 25.9967 173.176 26.3203 172.771 26.7409C172.375 27.1615 172.067 27.655 171.849 28.2212C171.631 28.7874 171.521 29.4103 171.521 30.0898C171.521 30.7612 171.631 31.384 171.849 31.9584C172.076 32.5246 172.387 33.018 172.783 33.4387C173.18 33.8512 173.649 34.1748 174.191 34.4094C174.733 34.6359 175.323 34.7491 175.962 34.7491ZM181.706 34.6035H182.895V31.1454H184.885L186.839 34.6035H188.222L186.123 30.9391C186.673 30.7531 187.11 30.4376 187.433 29.9927C187.757 29.5397 187.919 28.9937 187.919 28.3547C187.919 27.7803 187.789 27.2869 187.53 26.8744C187.28 26.4537 186.928 26.1302 186.475 25.9037C186.022 25.6772 185.496 25.5639 184.897 25.5639H181.706V34.6035ZM182.895 30.0534V26.656H184.934C185.468 26.656 185.896 26.8096 186.22 27.117C186.552 27.4163 186.717 27.8289 186.717 28.3547C186.717 28.8724 186.552 29.2849 186.22 29.5923C185.896 29.8997 185.468 30.0534 184.934 30.0534H182.895ZM193.894 34.7491C194.541 34.7491 195.139 34.6359 195.69 34.4094C196.248 34.1748 196.737 33.8472 197.158 33.4265C197.578 33.0059 197.906 32.5125 198.141 31.9462C198.375 31.38 198.492 30.7571 198.492 30.0777C198.492 29.4063 198.375 28.7874 198.141 28.2212C197.906 27.6469 197.578 27.1534 197.158 26.7409C196.737 26.3203 196.248 25.9967 195.69 25.7702C195.139 25.5356 194.541 25.4183 193.894 25.4183C193.255 25.4183 192.656 25.5356 192.098 25.7702C191.54 25.9967 191.05 26.3203 190.63 26.7409C190.217 27.1534 189.894 27.6428 189.659 28.2091C189.424 28.7753 189.307 29.3982 189.307 30.0777C189.307 30.7571 189.424 31.38 189.659 31.9462C189.894 32.5125 190.221 33.0059 190.642 33.4265C191.063 33.8472 191.548 34.1748 192.098 34.4094C192.656 34.6359 193.255 34.7491 193.894 34.7491ZM193.894 33.645C193.239 33.645 192.652 33.4872 192.134 33.1717C191.625 32.8482 191.224 32.4195 190.933 31.8856C190.642 31.3436 190.496 30.741 190.496 30.0777C190.496 29.4143 190.642 28.8157 190.933 28.2819C191.224 27.748 191.625 27.3233 192.134 27.0078C192.644 26.6843 193.23 26.5225 193.894 26.5225C194.557 26.5225 195.144 26.6843 195.653 27.0078C196.163 27.3233 196.563 27.748 196.854 28.2819C197.146 28.8157 197.291 29.4143 197.291 30.0777C197.291 30.741 197.146 31.3436 196.854 31.8856C196.563 32.4195 196.163 32.8482 195.653 33.1717C195.144 33.4872 194.557 33.645 193.894 33.645ZM203.503 34.7491C204.166 34.7491 204.744 34.6116 205.238 34.3366C205.739 34.0615 206.132 33.6854 206.415 33.2081C206.698 32.7228 206.84 32.1727 206.84 31.558V25.5639H205.638V31.5337C205.638 31.9462 205.545 32.3143 205.359 32.6379C205.181 32.9533 204.93 33.2001 204.607 33.378C204.291 33.556 203.923 33.645 203.503 33.645C203.082 33.645 202.71 33.556 202.386 33.378C202.071 33.2001 201.82 32.9533 201.634 32.6379C201.456 32.3143 201.367 31.9462 201.367 31.5337V25.5639H200.166V31.558C200.166 32.1727 200.308 32.7228 200.591 33.2081C200.874 33.6854 201.266 34.0615 201.768 34.3366C202.269 34.6116 202.848 34.7491 203.503 34.7491ZM208.794 34.6035H209.983V31.1454H211.985C212.583 31.1454 213.109 31.0322 213.562 30.8057C214.015 30.5792 214.367 30.2556 214.618 29.835C214.877 29.4143 215.006 28.9209 215.006 28.3547C215.006 27.7803 214.877 27.2869 214.618 26.8744C214.367 26.4537 214.015 26.1302 213.562 25.9037C213.109 25.6772 212.583 25.5639 211.985 25.5639H208.794V34.6035ZM209.983 30.0534V26.656H212.021C212.563 26.656 212.996 26.8096 213.32 27.117C213.643 27.4163 213.805 27.8289 213.805 28.3547C213.805 28.8724 213.643 29.2849 213.32 29.5923C212.996 29.8997 212.563 30.0534 212.021 30.0534H209.983Z" fill="black"/>
<path d="M162.592 10.0312L162.592 35.512" stroke="black" stroke-width="0.485347"/>
<defs>
<clipPath id="clip0_443_8728">
<rect width="46.7147" height="25.4807" fill="white" transform="translate(0 10.0312)"/>
</clipPath>
</defs>
</svg>

<svg xmlns="http://www.w3.org/2000/svg" width="229" height="43" fill="none"><g clip-path="url(#a)"><path fill="#000" d="M34.096 10.031c-3.654 0-6.95 1.578-9.255 4.093l4.127 6.29c.89-1.966 2.853-3.335 5.128-3.335 3.11 0 5.638 2.554 5.638 5.693s-2.529 5.692-5.638 5.692c-2.102 0-3.84-1.226-4.906-2.894-5.43-8.49-4.611-7.297-6.368-10.067-.427-.674-.94-1.372-1.069-1.509-2.3-2.44-5.544-3.963-9.135-3.963C5.661 10.031 0 15.747 0 22.771c0 7.025 5.66 12.741 12.618 12.741 3.673 0 6.983-1.593 9.29-4.13l-4.099-6.389c-.859 2.039-2.862 3.471-5.19 3.471-3.11 0-5.639-2.553-5.639-5.692 0-3.14 2.53-5.693 5.638-5.693 2.074 0 3.833 1.172 4.87 2.827 4.259 6.796 4.654 7.323 6.498 10.213.475.744 1.243 1.713 1.494 1.95a12.507 12.507 0 0 0 8.616 3.443c6.958 0 12.619-5.716 12.619-12.74 0-7.025-5.661-12.74-12.619-12.74Z"/></g><path fill="#000" d="M59.127 35.93h4.538V11.07h-4.538v24.86Zm8.952 0h4.372V25.285c0-1.179.333-2.124 1-2.836.69-.712 1.58-1.068 2.67-1.068 1.09 0 1.969.356 2.636 1.068.69.69 1.034 1.635 1.034 2.836V35.93h4.372V24.25c0-1.357-.29-2.547-.868-3.57a6.111 6.111 0 0 0-2.436-2.436c-1.023-.579-2.202-.868-3.537-.868-1.134 0-2.157.223-3.07.668a4.779 4.779 0 0 0-2.068 1.968v-2.235h-4.105V35.93Zm21.882 0h4.371V21.682h6.34V35.93h4.371V17.778h-10.71v-.6c0-.913.266-1.58.8-2.003.556-.445 1.313-.667 2.27-.667.355 0 .733.033 1.134.1v-3.77a8.028 8.028 0 0 0-1.702-.168c-2.091 0-3.76.568-5.005 1.702-1.246 1.135-1.869 2.736-1.869 4.805v.6h-3.203v3.905h3.203V35.93Zm18.72 0h4.371V25.285c0-1.179.334-2.124 1.001-2.836.69-.712 1.58-1.068 2.67-1.068 1.09 0 1.968.356 2.636 1.068.689.69 1.034 1.635 1.034 2.836V35.93h4.371V24.25c0-1.357-.289-2.547-.867-3.57a6.12 6.12 0 0 0-2.436-2.436c-1.023-.579-2.202-.868-3.537-.868-1.135 0-2.158.223-3.07.668a4.782 4.782 0 0 0-2.069 1.968v-2.235h-4.104V35.93Zm19.78-20.188h4.371v-4.671h-4.371v4.671Zm0 20.188h4.371V17.778h-4.371V35.93Zm6.772 0h5.138l3.804-5.64 3.771 5.64h5.105l-6.307-9.11 6.34-9.042h-5.105l-3.804 5.639-3.837-5.64h-5.139l6.373 9.043-6.339 9.11ZM171.788 19.604h1.189v-3.92h4.526v3.92h1.202v-9.04h-1.202v4.028h-4.526v-4.028h-1.189v9.04Zm13.242.145c.648 0 1.246-.113 1.796-.34a4.539 4.539 0 0 0 1.468-.982c.421-.421.749-.915.983-1.48.235-.567.352-1.19.352-1.87 0-.67-.117-1.29-.352-1.856a4.336 4.336 0 0 0-.983-1.48c-.42-.42-.91-.744-1.468-.97a4.527 4.527 0 0 0-1.796-.353c-.639 0-1.237.118-1.795.352a4.396 4.396 0 0 0-2.439 2.44 4.828 4.828 0 0 0-.352 1.868c0 .68.117 1.302.352 1.868.234.566.562 1.06.983 1.48.42.421.906.749 1.456.983.558.227 1.156.34 1.795.34Zm0-1.104a3.313 3.313 0 0 1-1.759-.473 3.456 3.456 0 0 1-1.201-1.286 3.76 3.76 0 0 1-.437-1.808c0-.664.146-1.262.437-1.796a3.363 3.363 0 0 1 1.201-1.274c.51-.324 1.096-.485 1.759-.485.664 0 1.25.161 1.76.485.509.315.91.74 1.201 1.274a3.69 3.69 0 0 1 .437 1.796 3.76 3.76 0 0 1-.437 1.808 3.464 3.464 0 0 1-1.201 1.286c-.51.315-1.096.473-1.76.473Zm6.333.959h5.157v-1.092h-3.968v-7.948h-1.189v9.04Zm6.494 0h2.96c.914 0 1.711-.19 2.391-.57a3.978 3.978 0 0 0 1.577-1.59c.372-.68.558-1.468.558-2.366 0-.906-.186-1.695-.558-2.366a3.899 3.899 0 0 0-1.577-1.578c-.68-.38-1.477-.57-2.391-.57h-2.96v9.04Zm1.189-1.092v-6.856h1.784c.663 0 1.237.141 1.723.425a2.81 2.81 0 0 1 1.14 1.177c.275.51.413 1.116.413 1.82 0 .695-.134 1.302-.401 1.82a2.87 2.87 0 0 1-1.14 1.2c-.486.276-1.064.414-1.735.414h-1.784Zm7.804 1.091h1.19v-9.04h-1.19v9.04Zm3.2 0h1.189v-6.77l4.756 6.77h.995v-9.04h-1.201v6.674l-4.744-6.673h-.995v9.04Zm13.132.146c.558 0 1.088-.097 1.589-.291a3.952 3.952 0 0 0 2.221-2.136c.218-.51.327-1.08.327-1.71v-.801h-4.149v1.031h2.948v.049c0 .542-.133 1.019-.4 1.431a2.718 2.718 0 0 1-1.056.971c-.437.235-.93.352-1.48.352-.631 0-1.193-.15-1.687-.449a3.188 3.188 0 0 1-1.152-1.25c-.276-.534-.413-1.153-.413-1.856 0-.712.137-1.335.413-1.869.275-.534.655-.95 1.14-1.25.494-.299 1.056-.448 1.687-.448s1.173.153 1.626.46c.453.308.78.724.982 1.25l1.068-.521a3.082 3.082 0 0 0-.74-1.117 3.933 3.933 0 0 0-1.262-.85c-.493-.217-1.051-.327-1.674-.327-.639 0-1.23.118-1.772.352a4.213 4.213 0 0 0-1.407.97 4.49 4.49 0 0 0-.923 1.481 5.16 5.16 0 0 0-.327 1.869c0 .671.109 1.294.327 1.868.227.567.538 1.06.935 1.48a4.29 4.29 0 0 0 1.407.971c.542.227 1.133.34 1.772.34Zm-47.22 15c.558 0 1.088-.097 1.59-.291a3.958 3.958 0 0 0 2.22-2.136c.219-.51.328-1.08.328-1.71v-.801h-4.15v1.031h2.949v.049c0 .542-.134 1.019-.401 1.431-.259.413-.61.736-1.055.971a3.082 3.082 0 0 1-1.481.352c-.631 0-1.193-.15-1.686-.449-.486-.3-.87-.716-1.153-1.25-.275-.534-.412-1.152-.412-1.856 0-.712.137-1.335.412-1.869.275-.534.655-.95 1.141-1.25.493-.299 1.055-.448 1.686-.448s1.173.153 1.626.46c.453.308.781.724.983 1.25l1.068-.521a3.108 3.108 0 0 0-.74-1.117 3.944 3.944 0 0 0-1.262-.85c-.494-.218-1.052-.327-1.675-.327a4.41 4.41 0 0 0-1.771.352 4.227 4.227 0 0 0-1.408.97c-.396.422-.704.915-.922 1.481a5.16 5.16 0 0 0-.328 1.869c0 .671.11 1.294.328 1.868a4.67 4.67 0 0 0 .934 1.48c.397.413.866.737 1.408.971.542.227 1.132.34 1.771.34Zm5.744-.146h1.189v-3.458h1.99l1.954 3.458h1.383l-2.099-3.664c.55-.186.987-.501 1.31-.946.324-.453.486-1 .486-1.638 0-.575-.13-1.068-.389-1.48a2.496 2.496 0 0 0-1.055-.971c-.453-.227-.979-.34-1.578-.34h-3.191v9.04Zm1.189-4.55v-3.397h2.039c.534 0 .962.154 1.286.461.332.3.497.712.497 1.238 0 .517-.165.93-.497 1.237-.324.308-.752.461-1.286.461h-2.039Zm10.999 4.696c.647 0 1.245-.113 1.796-.34a4.528 4.528 0 0 0 2.451-2.463c.234-.566.351-1.189.351-1.868 0-.672-.117-1.29-.351-1.857a4.365 4.365 0 0 0-.983-1.48 4.392 4.392 0 0 0-1.468-.97 4.534 4.534 0 0 0-1.796-.353c-.639 0-1.238.118-1.796.352a4.382 4.382 0 0 0-1.468.97 4.47 4.47 0 0 0-.971 1.47 4.828 4.828 0 0 0-.352 1.868c0 .68.117 1.302.352 1.868.235.567.562 1.06.983 1.48.421.421.906.749 1.456.983a4.73 4.73 0 0 0 1.796.34Zm0-1.104a3.317 3.317 0 0 1-1.76-.473 3.464 3.464 0 0 1-1.201-1.286 3.76 3.76 0 0 1-.437-1.808c0-.664.146-1.262.437-1.796a3.371 3.371 0 0 1 1.201-1.274c.51-.324 1.096-.485 1.76-.485.663 0 1.25.161 1.759.485.51.315.91.74 1.201 1.274a3.68 3.68 0 0 1 .437 1.796 3.75 3.75 0 0 1-.437 1.808 3.456 3.456 0 0 1-1.201 1.286c-.509.315-1.096.473-1.759.473Zm9.609 1.104c.663 0 1.241-.137 1.735-.412a3.041 3.041 0 0 0 1.177-1.129 3.215 3.215 0 0 0 .425-1.65v-5.994h-1.202v5.97c0 .412-.093.78-.279 1.104a1.896 1.896 0 0 1-.752.74 2.212 2.212 0 0 1-1.104.267c-.421 0-.793-.089-1.117-.267a2.004 2.004 0 0 1-.752-.74 2.253 2.253 0 0 1-.267-1.104v-5.97h-1.201v5.994c0 .615.142 1.165.425 1.65.283.477.675.854 1.177 1.129.501.275 1.08.412 1.735.412Zm5.291-.146h1.189v-3.458h2.002c.598 0 1.124-.113 1.577-.34.453-.226.805-.55 1.056-.97.259-.42.388-.914.388-1.48 0-.575-.129-1.068-.388-1.48a2.504 2.504 0 0 0-1.056-.971c-.453-.227-.979-.34-1.577-.34h-3.191v9.04Zm1.189-4.55v-3.397h2.038c.542 0 .975.154 1.299.461.323.3.485.712.485 1.238 0 .517-.162.93-.485 1.237-.324.308-.757.461-1.299.461h-2.038Z"/><path stroke="#000" stroke-width=".485" d="M162.592 10.031v25.481"/><defs><clipPath id="a"><path fill="#fff" d="M0 10.031h46.715v25.481H0z"/></clipPath></defs></svg>
